svgs/sharp-solid/user-doctor-message.svg

<svg xmlns="http://www.w3.org/2000/svg" viewBox="0 0 640 512"><!--! Font Awesome Pro 6.6.0 by @fontawesome - https://fontawesome.com License - https://fontawesome.com/license (Commercial License) Copyright 2024 Fonticons, Inc. --><path d="M224 256A128 128 0 1 0 224 0a128 128 0 1 0 0 256zM448 512L384 304l-64 0 0 58c27.6 7.1 48 32.2 48 62l0 40 0 16-16 0-16 0-16 0 0-32 16 0 0-24c0-17.7-14.3-32-32-32s-32 14.3-32 32l0 24 16 0 0 32-16 0-16 0-16 0 0-16 0-40c0-29.8 20.4-54.9 48-62l0-58-128 0 0 66.3c23.1 6.9 40 28.3 40 53.7c0 30.9-25.1 56-56 56s-56-25.1-56-56c0-25.4 16.9-46.8 40-53.7l0-66.3-64 0L0 512l448 0zM168 424a24 24 0 1 0 -48 0 24 24 0 1 0 48 0zM384 0l0 224 64 0 0 64 96-64 96 0L640 0 384 0z"/></svg>

<svg xmlns="http://www.w3.org/2000/svg" viewBox="0 0 640 512"><!--! Font Awesome Pro 6.4.0 by @fontawesome - https://fontawesome.com License - https://fontawesome.com/license (Commercial License) Copyright 2023 Fonticons, Inc. --><path d="M224 256A128 128 0 1 0 224 0a128 128 0 1 0 0 256zM448 512L384 304H320v58c27.6 7.1 48 32.2 48 62v40 16H352 336 320V448h16V424c0-17.7-14.3-32-32-32s-32 14.3-32 32v24h16v32H272 256 240V464 424c0-29.8 20.4-54.9 48-62V304H160v66.3c23.1 6.9 40 28.3 40 53.7c0 30.9-25.1 56-56 56s-56-25.1-56-56c0-25.4 16.9-46.8 40-53.7V304H64L0 512H448zM168 424a24 24 0 1 0 -48 0 24 24 0 1 0 48 0zM384 0V224h64v64l96-64h96V0H384z"/></svg>
